build/img/landings/context/advantage-4-small.svg

<svg width="368" height="179" viewBox="0 0 368 179" fill="none" xmlns="http://www.w3.org/2000/svg">
<g clip-path="url(#clip0)">
<path d="M297.226 54.4078C296.9 54.1794 296.641 53.8678 296.477 53.5059C296.313 53.144 296.25 52.7451 296.294 52.3514C296.337 51.9577 296.487 51.5838 296.727 51.269C296.966 50.9543 297.287 50.7104 297.655 50.5631L356.996 26.7888C357.538 26.5716 358.146 26.5788 358.686 26.8087C359.225 27.0386 359.652 27.4725 359.873 28.0148C360.094 28.5571 360.091 29.1635 359.863 29.7006C359.636 30.2376 359.204 30.6614 358.662 30.8785L299.318 54.65C298.978 54.7866 298.608 54.8359 298.243 54.7936C297.878 54.7513 297.528 54.6187 297.226 54.4078Z" fill="#22183B"/>
<path d="M338.966 70.6205C338.67 70.4139 338.429 70.1378 338.265 69.8167L310.609 16.0754C310.341 15.5545 310.291 14.9499 310.469 14.3946C310.648 13.8393 311.04 13.3788 311.561 13.1144C312.081 12.85 312.687 12.8034 313.244 12.9848C313.802 13.1662 314.266 13.5608 314.534 14.0817L342.189 67.8239C342.414 68.2624 342.486 68.7626 342.394 69.2449C342.302 69.7272 342.051 70.1639 341.68 70.4855C341.309 70.8071 340.841 70.9951 340.349 71.0196C339.857 71.0441 339.37 70.9036 338.966 70.6205Z" fill="#22183B"/>
<path d="M276.466 139.998C277.848 138.625 279.209 137.235 280.549 135.829C281.895 134.428 283.199 132.991 284.493 131.547C285.786 130.103 287.036 128.621 288.275 127.136C289.515 125.652 290.71 124.13 291.885 122.596C291.906 122.569 291.927 122.543 291.949 122.519L291.984 122.482C293.81 120.482 295.513 118.375 297.082 116.174C298.671 113.978 300.141 111.7 301.485 109.349C302.837 106.998 304.095 104.589 305.258 102.122C305.554 101.509 305.832 100.886 306.113 100.266C306.4 99.6522 306.687 98.9849 306.974 98.3472C307.285 97.704 307.641 97.0645 307.974 96.4235L309 94.5631L308.94 94.6815C309.835 92.755 310.73 90.8251 311.562 88.8669C312.394 86.9088 313.195 84.9369 313.958 82.949C315.477 78.9708 316.851 74.9323 318.118 70.8498C318.198 70.5902 318.376 70.3708 318.615 70.237C318.854 70.1033 319.136 70.0654 319.402 70.1312C319.669 70.197 319.9 70.3615 320.047 70.5906C320.194 70.8197 320.246 71.0959 320.192 71.3619C319.333 75.6177 318.229 79.822 316.887 83.9543C315.551 88.0982 313.997 92.1701 312.229 96.1531L312.207 96.2003L312.168 96.273L311.226 98.0768C310.935 98.6738 310.626 99.252 310.348 99.8622C310.081 100.495 309.838 101.104 309.551 101.755C309.264 102.397 308.983 103.042 308.682 103.68C307.496 106.236 306.221 108.763 304.802 111.217C303.372 113.673 301.811 116.052 300.126 118.344C298.419 120.63 296.572 122.811 294.596 124.874L294.692 124.761C293.429 126.291 292.136 127.796 290.815 129.275C289.494 130.755 288.115 132.184 286.722 133.594C285.329 135.004 283.881 136.363 282.418 137.7C280.946 139.028 279.44 140.315 277.898 141.562C277.685 141.733 277.414 141.817 277.141 141.797C276.867 141.777 276.612 141.653 276.428 141.453C276.244 141.252 276.145 140.989 276.151 140.718C276.158 140.448 276.27 140.19 276.463 139.998L276.466 139.998Z" fill="#22183B"/>
<path d="M173.51 177.593C175.572 177.695 177.632 177.77 179.69 177.815C181.747 177.87 183.804 177.866 185.858 177.849C187.911 177.832 189.964 177.752 192.012 177.664C194.059 177.575 196.105 177.425 198.145 177.251C198.18 177.248 198.216 177.246 198.25 177.246L198.305 177.247C201.174 177.25 204.039 177.08 206.884 176.738C209.739 176.416 212.573 175.942 215.374 175.317C218.181 174.697 220.966 173.964 223.73 173.115C224.422 172.909 225.108 172.682 225.795 172.46C226.48 172.247 227.208 171.995 227.913 171.765C228.639 171.549 229.394 171.372 230.133 171.175L232.324 170.651L232.188 170.689C234.337 170.015 236.488 169.339 238.616 168.593C240.744 167.847 242.862 167.067 244.964 166.247C249.167 164.598 253.312 162.792 257.417 160.872C257.678 160.749 257.976 160.731 258.251 160.823C258.527 160.915 258.757 161.109 258.896 161.364C259.034 161.62 259.069 161.918 258.995 162.197C258.92 162.475 258.74 162.713 258.494 162.861C254.544 165.225 250.46 167.36 246.263 169.258C242.062 171.169 237.761 172.857 233.378 174.314L233.325 174.331L233.241 174.353L231.155 174.902C230.479 175.1 229.805 175.27 229.129 175.488C228.442 175.73 227.791 175.975 227.077 176.214C226.368 176.448 225.662 176.689 224.948 176.908C222.098 177.803 219.209 178.607 216.273 179.248C213.328 179.88 210.35 180.355 207.351 180.67C204.343 180.965 201.316 181.075 198.29 181L198.447 180.994C196.347 181.096 194.246 181.158 192.144 181.179C190.043 181.2 187.94 181.14 185.841 181.055C183.742 180.97 181.645 180.806 179.554 180.615C177.464 180.41 175.381 180.148 173.304 179.83C173.019 179.786 172.76 179.634 172.58 179.405C172.401 179.176 172.316 178.888 172.342 178.601C172.369 178.314 172.504 178.048 172.721 177.86C172.938 177.672 173.22 177.576 173.509 177.591L173.51 177.593Z" fill="#22183B"/>
<path d="M76.8285 186.882C78.3522 186.189 79.8827 185.518 81.4199 184.869C82.954 184.213 84.5049 183.603 86.0574 183.003C87.61 182.403 89.1799 181.85 90.7482 181.306C92.3165 180.761 93.9017 180.264 95.4898 179.787C95.5173 179.778 95.5445 179.769 95.5705 179.759L95.6115 179.743C97.7725 178.883 99.9806 178.157 102.224 177.566C104.469 176.958 106.742 176.471 109.035 176.108C111.33 175.739 113.643 175.463 115.972 175.28C116.553 175.23 117.137 175.197 117.719 175.16C118.298 175.117 118.919 175.09 119.517 175.054C120.127 175 120.748 174.909 121.362 174.837L123.165 174.58L123.052 174.592C124.867 174.461 126.685 174.33 128.506 174.26C130.327 174.189 132.15 174.148 133.973 174.141C137.62 174.135 141.27 174.264 144.922 174.493C145.154 174.508 145.384 174.432 145.565 174.281C145.745 174.129 145.863 173.913 145.893 173.678C145.922 173.444 145.862 173.207 145.724 173.019C145.587 172.83 145.382 172.704 145.153 172.665C141.489 172.055 137.79 171.657 134.074 171.474C130.352 171.281 126.619 171.287 122.892 171.492L122.848 171.496L122.778 171.504L121.046 171.711C120.479 171.763 119.922 171.835 119.349 171.872C118.761 171.894 118.199 171.903 117.591 171.935C116.989 171.97 116.387 171.998 115.785 172.046C113.377 172.219 110.965 172.472 108.567 172.864C106.164 173.264 103.781 173.794 101.43 174.45C99.0772 175.125 96.7651 175.945 94.5066 176.906L94.627 176.863C93.0148 177.413 91.4137 177.993 89.8237 178.605C88.2341 179.216 86.6673 179.889 85.1107 180.58C83.554 181.271 82.0214 182.021 80.5022 182.79C78.9869 183.57 77.4934 184.389 76.0217 185.25C75.8193 185.369 75.6683 185.561 75.6001 185.788C75.5319 186.015 75.5516 186.258 75.6551 186.468C75.7586 186.678 75.9381 186.838 76.1564 186.915C76.3747 186.993 76.6152 186.982 76.8282 186.884L76.8285 186.882Z" fill="#22183B"/>
</g>
<defs>
<clipPath id="clip0">
<rect width="375" height="179" fill="white" transform="translate(-7)"/>
</clipPath>
</defs>
</svg>

<svg width="368" height="179" fill="none" xmlns="http://www.w3.org/2000/svg"><g clip-path="url(#clip0)" fill="#22183B"><path d="M297.226 54.408a2.204 2.204 0 01-.499-3.139 2.18 2.18 0 01.928-.706l59.341-23.774a2.214 2.214 0 011.69.02c.539.23.966.663 1.187 1.206a2.194 2.194 0 01-1.211 2.863L299.318 54.65c-.34.137-.71.186-1.075.144a2.225 2.225 0 01-1.017-.386z"/><path d="M338.966 70.62a2.203 2.203 0 01-.701-.803l-27.656-53.742a2.204 2.204 0 01-.14-1.68 2.186 2.186 0 011.092-1.28 2.207 2.207 0 011.683-.13 2.224 2.224 0 011.29 1.097l27.655 53.742c.225.438.297.939.205 1.42a2.182 2.182 0 01-.714 1.242c-.371.321-.839.51-1.331.534a2.219 2.219 0 01-1.383-.4zm-62.5 69.378a213.78 213.78 0 004.083-4.169 167.672 167.672 0 003.944-4.282 166.283 166.283 0 003.782-4.411 136.786 136.786 0 003.61-4.54c.021-.027.042-.053.064-.077l.035-.037c1.826-2 3.529-4.107 5.098-6.308a75.904 75.904 0 004.403-6.825c1.352-2.351 2.61-4.76 3.773-7.227.296-.613.574-1.236.855-1.856.287-.614.574-1.281.861-1.919.311-.643.667-1.282 1-1.923l1.026-1.86-.06.118c.895-1.927 1.79-3.857 2.622-5.815.832-1.958 1.633-3.93 2.396-5.918a200.497 200.497 0 004.16-12.1c.08-.259.258-.478.497-.612a1.082 1.082 0 011.432.354c.147.229.199.505.145.77a113.421 113.421 0 01-3.305 12.593 123.381 123.381 0 01-4.658 12.2l-.022.046-.039.073-.942 1.804c-.291.597-.6 1.175-.878 1.785-.267.633-.51 1.242-.797 1.893-.287.642-.568 1.287-.869 1.925-1.186 2.556-2.461 5.083-3.88 7.537a79.944 79.944 0 01-4.676 7.127 69.921 69.921 0 01-5.53 6.53l.096-.113a152.84 152.84 0 01-3.877 4.514c-1.321 1.48-2.7 2.909-4.093 4.319a116.637 116.637 0 01-4.304 4.106 110.075 110.075 0 01-4.52 3.862 1.084 1.084 0 01-1.47-.109 1.054 1.054 0 01-.277-.735c.007-.27.119-.528.312-.72h.003zM173.51 177.593c2.062.102 4.122.177 6.18.222 2.057.055 4.114.051 6.168.034 2.053-.017 4.106-.097 6.154-.185 2.047-.089 4.093-.239 6.133-.413a1.25 1.25 0 01.105-.005l.055.001a71.257 71.257 0 008.579-.509 80.315 80.315 0 008.49-1.421c2.807-.62 5.592-1.353 8.356-2.202.692-.206 1.378-.433 2.065-.655.685-.213 1.413-.465 2.118-.695.726-.216 1.481-.393 2.22-.59l2.191-.524-.136.038c2.149-.674 4.3-1.35 6.428-2.096a194.685 194.685 0 006.348-2.346 213.24 213.24 0 0012.453-5.375 1.12 1.12 0 01.834-.049 1.14 1.14 0 01.744 1.374 1.114 1.114 0 01-.501.664 120.512 120.512 0 01-12.231 6.397 130.66 130.66 0 01-12.885 5.056l-.053.017-.084.022-2.086.549c-.676.198-1.35.368-2.026.586-.687.242-1.338.487-2.052.726-.709.234-1.415.475-2.129.694-2.85.895-5.739 1.699-8.675 2.34a84.676 84.676 0 01-8.922 1.422 74.051 74.051 0 01-9.061.33l.157-.006c-2.1.102-4.201.164-6.303.185-2.101.021-4.204-.039-6.303-.124a124.573 124.573 0 01-6.287-.44c-2.09-.205-4.173-.467-6.25-.785a1.144 1.144 0 01-.962-1.229 1.113 1.113 0 011.167-1.01l.001.002zm-96.681 9.289a183.256 183.256 0 014.59-2.013 141.619 141.619 0 014.638-1.866c1.553-.6 3.123-1.153 4.691-1.697a116.73 116.73 0 014.742-1.519c.027-.009.055-.018.08-.028l.042-.016a57.487 57.487 0 016.612-2.177 64.833 64.833 0 016.811-1.458 86.244 86.244 0 016.937-.828c.581-.05 1.165-.083 1.747-.12.579-.043 1.2-.07 1.798-.106.61-.054 1.231-.145 1.845-.217l1.803-.257-.113.012c1.815-.131 3.633-.262 5.454-.332 1.821-.071 3.644-.112 5.467-.119 3.647-.006 7.297.123 10.949.352a.913.913 0 00.643-.212.948.948 0 00.328-.603.923.923 0 00-.169-.659.888.888 0 00-.571-.354 96.306 96.306 0 00-11.079-1.191 104.798 104.798 0 00-11.182.018l-.044.004-.07.008-1.732.207c-.567.052-1.124.124-1.697.161-.588.022-1.15.031-1.758.063-.602.035-1.204.063-1.806.111-2.408.173-4.82.426-7.218.818-2.403.4-4.786.93-7.137 1.586a59.805 59.805 0 00-6.923 2.456l.12-.043c-1.612.55-3.213 1.13-4.803 1.742a100.6 100.6 0 00-4.713 1.975c-1.557.691-3.09 1.441-4.609 2.21a94.693 94.693 0 00-4.48 2.46.936.936 0 00-.367 1.218.889.889 0 001.173.416v-.002z"/></g><defs><clipPath id="clip0"><path fill="#fff" transform="translate(-7)" d="M0 0h375v179H0z"/></clipPath></defs></svg>
